X: 79
M:4/4
L:1/8
K:G
bg g2affa|gddg fdcA|Bdce dfeg|fagb a2 ga|
bg g2 affa|gddg fdcA|Bdce dfeg|fagb gedB||

